icons/arrow-reverse-downleft.svg

<svg width="24" height="24" viewBox="0 0 24 24" fill="none" xmlns="http://www.w3.org/2000/svg">
<path fill-rule="evenodd" clip-rule="evenodd" d="M9.82702 9.06879C9.53413 8.7759 9.05926 8.7759 8.76636 9.06879L5.36513 12.47C5.09456 12.7406 4.92037 13.0998 4.92037 13.5005C4.92037 13.9013 5.09456 14.2605 5.36513 14.531L8.76636 17.9323C9.05925 18.2252 9.53413 18.2252 9.82702 17.9323C10.1199 17.6394 10.1199 17.1645 9.82702 16.8716L6.45594 13.5005L9.82702 10.1295C10.1199 9.83656 10.1199 9.36168 9.82702 9.06879Z" fill="black"/>
<path fill-rule="evenodd" clip-rule="evenodd" d="M18.4 5.84802C17.9857 5.84802 17.65 6.18381 17.65 6.59802L18.4 6.59802C17.65 6.59802 17.65 6.59834 17.65 6.59802L17.6498 6.60601C17.6497 6.61511 17.6494 6.63047 17.6487 6.65168C17.6473 6.69412 17.6443 6.75984 17.6382 6.84548C17.6259 7.01701 17.6011 7.26696 17.5508 7.56887C17.4495 8.17624 17.2485 8.9746 16.8538 9.76388C16.4607 10.5502 15.8827 11.3138 15.0297 11.8824C14.1815 12.4479 13.0168 12.8506 11.3974 12.8506L5.6 12.8506L5.59996 14.3506L11.3974 14.3506C13.2793 14.3506 14.7406 13.8779 15.8618 13.1305C16.9783 12.3861 17.7133 11.399 18.1955 10.4347C18.6761 9.47335 18.9127 8.52108 19.0303 7.81547C19.0894 7.46089 19.1193 7.16376 19.1344 6.95235C19.1419 6.84651 19.1458 6.76178 19.1478 6.70165C19.1488 6.67157 19.1494 6.64761 19.1497 6.63021L19.1499 6.60905L19.15 6.60225L19.15 6.59981C19.15 6.59939 19.15 6.59802 18.4 6.59802L19.15 6.59802C19.15 6.18381 18.8142 5.84802 18.4 5.84802Z" fill="black"/>
</svg>

<svg xmlns="http://www.w3.org/2000/svg" fill="none" viewBox="0 0 24 24">
  <path fill="#000" fill-rule="evenodd" d="M9.827 9.069a.75.75 0 0 0-1.06 0L5.364 12.47c-.27.27-.445.63-.445 1.03 0 .401.175.76.445 1.031l3.401 3.401a.75.75 0 1 0 1.061-1.06L6.456 13.5l3.371-3.371a.75.75 0 0 0 0-1.061Z" clip-rule="evenodd"/>
  <path fill="#000" fill-rule="evenodd" d="M18.4 5.848a.75.75 0 0 0-.75.75h.75-.75v.008l-.001.046a7.865 7.865 0 0 1-.098.917 7.857 7.857 0 0 1-.697 2.195c-.393.786-.971 1.55-1.824 2.118-.848.566-2.013.969-3.633.969H5.6v1.5h5.797c1.882 0 3.344-.473 4.465-1.22 1.116-.745 1.851-1.732 2.333-2.696a9.331 9.331 0 0 0 .835-2.62 9.344 9.344 0 0 0 .118-1.113l.002-.072V6.6s0-.002-.75-.002h.75a.75.75 0 0 0-.75-.75Z" clip-rule="evenodd"/>
</svg>
